app/assets/images/heroicons/outline/puzzle-piece.svg

<svg width="24" height="24" viewBox="0 0 24 24" fill="none" xmlns="http://www.w3.org/2000/svg">
<path d="M14.25 6.08694C14.25 5.73178 14.4361 5.41076 14.6512 5.1282C14.8721 4.8381 15 4.494 15 4.125C15 3.08947 13.9926 2.25 12.75 2.25C11.5074 2.25 10.5 3.08947 10.5 4.125C10.5 4.494 10.6279 4.8381 10.8488 5.1282C11.064 5.41076 11.25 5.73178 11.25 6.08694V6.08694C11.25 6.44822 10.9542 6.73997 10.593 6.72957C9.18939 6.68914 7.80084 6.58845 6.42989 6.43C6.61626 8.04276 6.72269 9.67987 6.74511 11.3373C6.75007 11.7032 6.45293 12 6.08694 12V12C5.73178 12 5.41076 11.814 5.1282 11.5988C4.8381 11.3779 4.494 11.25 4.125 11.25C3.08947 11.25 2.25 12.2574 2.25 13.5C2.25 14.7426 3.08947 15.75 4.125 15.75C4.494 15.75 4.8381 15.6221 5.1282 15.4012C5.41076 15.186 5.73178 15 6.08694 15V15C6.39613 15 6.64157 15.2608 6.6189 15.5691C6.49306 17.2812 6.27742 18.9682 5.97668 20.6256C7.49458 20.8157 9.03451 20.9348 10.5931 20.9797C10.9542 20.9901 11.2501 20.6983 11.2501 20.337V20.337C11.2501 19.9818 11.0641 19.6608 10.8489 19.3782C10.628 19.0881 10.5001 18.744 10.5001 18.375C10.5001 17.3395 11.5075 16.5 12.7501 16.5C13.9928 16.5 15.0001 17.3395 15.0001 18.375C15.0001 18.744 14.8722 19.0881 14.6513 19.3782C14.4362 19.6608 14.2501 19.9818 14.2501 20.337V20.337C14.2501 20.6699 14.5281 20.9357 14.8605 20.9161C16.6992 20.8081 18.5102 20.5965 20.2876 20.2872C20.5571 18.7389 20.7523 17.1652 20.8696 15.5698C20.8923 15.2611 20.6466 15 20.3371 15V15C19.9819 15 19.6609 15.1861 19.3783 15.4013C19.0882 15.6221 18.7441 15.75 18.3751 15.75C17.3396 15.75 16.5001 14.7427 16.5001 13.5C16.5001 12.2574 17.3396 11.25 18.3751 11.25C18.7441 11.25 19.0882 11.378 19.3783 11.5988C19.6609 11.814 19.9819 12 20.3371 12V12C20.7034 12 21.0008 11.703 20.9959 11.3367C20.9713 9.52413 20.8463 7.73572 20.6261 5.97698C18.7403 6.31916 16.816 6.55115 14.8603 6.66605C14.528 6.68557 14.25 6.41979 14.25 6.08694V6.08694Z" stroke="#0F172A" stroke-width="1.5" stroke-linecap="round" stroke-linejoin="round"/>
</svg>

<svg xmlns="http://www.w3.org/2000/svg" fill="none" viewBox="0 0 24 24" stroke-width="1.5" stroke="currentColor" aria-hidden="true" data-slot="icon">
  <path stroke-linecap="round" stroke-linejoin="round" d="M14.25 6.087c0-.355.186-.676.401-.959.221-.29.349-.634.349-1.003 0-1.036-1.007-1.875-2.25-1.875s-2.25.84-2.25 1.875c0 .369.128.713.349 1.003.215.283.401.604.401.959v0a.64.64 0 0 1-.657.643 48.39 48.39 0 0 1-4.163-.3c.186 1.613.293 3.25.315 4.907a.656.656 0 0 1-.658.663v0c-.355 0-.676-.186-.959-.401a1.647 1.647 0 0 0-1.003-.349c-1.036 0-1.875 1.007-1.875 2.25s.84 2.25 1.875 2.25c.369 0 .713-.128 1.003-.349.283-.215.604-.401.959-.401v0c.31 0 .555.26.532.57a48.039 48.039 0 0 1-.642 5.056c1.518.19 3.058.309 4.616.354a.64.64 0 0 0 .657-.643v0c0-.355-.186-.676-.401-.959a1.647 1.647 0 0 1-.349-1.003c0-1.035 1.008-1.875 2.25-1.875 1.243 0 2.25.84 2.25 1.875 0 .369-.128.713-.349 1.003-.215.283-.4.604-.4.959v0c0 .333.277.599.61.58a48.1 48.1 0 0 0 5.427-.63 48.05 48.05 0 0 0 .582-4.717.532.532 0 0 0-.533-.57v0c-.355 0-.676.186-.959.401-.29.221-.634.349-1.003.349-1.035 0-1.875-1.007-1.875-2.25s.84-2.25 1.875-2.25c.37 0 .713.128 1.003.349.283.215.604.401.96.401v0a.656.656 0 0 0 .658-.663 48.422 48.422 0 0 0-.37-5.36c-1.886.342-3.81.574-5.766.689a.578.578 0 0 1-.61-.58v0Z"/>
</svg>
